X: 39086
T: Sweeney's Buttermilk
R: reel
M: 4/4
K: Aminor
|:EA A2 eA A2|cBAB GD D2|EA A2 GABd|gedB Ag^fg|
e2 dB e2 dB|AGAB AGED|EA A2 GABd|gedB A2 AG:|
|:EAcB AE E2|DGBA GD D2|EAcB Acea|gedB A3 B|
ABcd eA A2|gedB GABd|e3g ae e2|gedB A2 AG:|

